Numix-Circle/48x48/apps/accessories-screenshot.svg

<?xml version="1.0" encoding="UTF-8" standalone="no"?>
<svg
   xmlns:dc="http://purl.org/dc/elements/1.1/"
   xmlns:cc="http://creativecommons.org/ns#"
   xmlns:rdf="http://www.w3.org/1999/02/22-rdf-syntax-ns#"
   xmlns:svg="http://www.w3.org/2000/svg"
   xmlns="http://www.w3.org/2000/svg"
   xmlns:xlink="http://www.w3.org/1999/xlink"
   xmlns:sodipodi="http://sodipodi.sourceforge.net/DTD/sodipodi-0.dtd"
   xmlns:inkscape="http://www.inkscape.org/namespaces/inkscape"
   viewBox="0 0 48 48"
   id="svg2"
   version="1.1"
   inkscape:version="0.91 r13725"
   sodipodi:docname="accessories-screenshot.svg">
  <metadata
     id="metadata70">
    <rdf:RDF>
      <cc:Work
         rdf:about="">
        <dc:format>image/svg+xml</dc:format>
        <dc:type
           rdf:resource="http://purl.org/dc/dcmitype/StillImage" />
      </cc:Work>
    </rdf:RDF>
  </metadata>
  <sodipodi:namedview
     pagecolor="#ffffff"
     bordercolor="#666666"
     borderopacity="1"
     objecttolerance="10"
     gridtolerance="10"
     guidetolerance="10"
     inkscape:pageopacity="0"
     inkscape:pageshadow="2"
     inkscape:window-width="1580"
     inkscape:window-height="838"
     id="namedview68"
     showgrid="true"
     inkscape:zoom="16"
     inkscape:cx="56.096761"
     inkscape:cy="23.844197"
     inkscape:window-x="10"
     inkscape:window-y="52"
     inkscape:window-maximized="0"
     inkscape:current-layer="svg2"
     inkscape:snap-intersection-paths="true"
     inkscape:object-nodes="true">
    <inkscape:grid
       type="xygrid"
       id="grid3845" />
  </sodipodi:namedview>
  <defs
     id="defs4">
    <linearGradient
       inkscape:collect="always"
       id="linearGradient4397">
      <stop
         style="stop-color:#5c5c5c;stop-opacity:1;"
         offset="0"
         id="stop4399" />
      <stop
         style="stop-color:#666666;stop-opacity:1"
         offset="1"
         id="stop4401" />
    </linearGradient>
    <linearGradient
       inkscape:collect="always"
       id="linearGradient4389">
      <stop
         style="stop-color:#666666;stop-opacity:1;"
         offset="0"
         id="stop4391" />
      <stop
         style="stop-color:#707070;stop-opacity:1"
         offset="1"
         id="stop4393" />
    </linearGradient>
    <linearGradient
       inkscape:collect="always"
       id="linearGradient4381">
      <stop
         style="stop-color:#5c5c5c;stop-opacity:1;"
         offset="0"
         id="stop4383" />
      <stop
         style="stop-color:#666666;stop-opacity:1"
         offset="1"
         id="stop4385" />
    </linearGradient>
    <linearGradient
       inkscape:collect="always"
       id="linearGradient4373">
      <stop
         style="stop-color:#666666;stop-opacity:1;"
         offset="0"
         id="stop4375" />
      <stop
         style="stop-color:#707070;stop-opacity:1"
         offset="1"
         id="stop4377" />
    </linearGradient>
    <linearGradient
       inkscape:collect="always"
       id="linearGradient4357">
      <stop
         style="stop-color:#666666;stop-opacity:1;"
         offset="0"
         id="stop4359" />
      <stop
         style="stop-color:#707070;stop-opacity:1"
         offset="1"
         id="stop4361" />
    </linearGradient>
    <linearGradient
       inkscape:collect="always"
       id="linearGradient4349">
      <stop
         style="stop-color:#5c5c5c;stop-opacity:1;"
         offset="0"
         id="stop4351" />
      <stop
         style="stop-color:#666666;stop-opacity:1"
         offset="1"
         id="stop4353" />
    </linearGradient>
    <linearGradient
       inkscape:collect="always"
       id="linearGradient4904">
      <stop
         style="stop-color:#8a8a8a;stop-opacity:1;"
         offset="0"
         id="stop4906" />
      <stop
         style="stop-color:#808080;stop-opacity:1"
         offset="1"
         id="stop4908" />
    </linearGradient>
    <radialGradient
       id="radial0"
       gradientUnits="userSpaceOnUse"
       cx="6.773"
       cy="5.927"
       r="0.564"
       gradientTransform="matrix(3.543307,0,0,3.543307,0.000000147638,0.000377575)">
      <stop
         style="stop-color:#8eb0c7;stop-opacity:1"
         id="stop12" />
      <stop
         offset="1"
         style="stop-color:#8eb0c7;stop-opacity:0"
         id="stop14" />
    </radialGradient>
    <radialGradient
       id="radial1"
       gradientUnits="userSpaceOnUse"
       cx="6"
       cy="17.292"
       r="1"
       gradientTransform="matrix(0.6394453,0,0,0.6394453,20.163328,14.221584)"
       xlink:href="#radial0" />
    <radialGradient
       xlink:href="#radial0"
       id="radialGradient3427"
       gradientUnits="userSpaceOnUse"
       gradientTransform="matrix(2.265751,0,0,2.265751,8.6533129,8.6535542)"
       cx="6.773"
       cy="5.927"
       r="0.564" />
    <linearGradient
       inkscape:collect="always"
       xlink:href="#linearGradient4904"
       id="linearGradient4910"
       x1="1"
       y1="24"
       x2="47"
       y2="24"
       gradientUnits="userSpaceOnUse"
       gradientTransform="matrix(0,1,-1,0,48,0)" />
    <linearGradient
       inkscape:collect="always"
       xlink:href="#linearGradient4349"
       id="linearGradient4355"
       x1="24"
       y1="47"
       x2="24"
       y2="1"
       gradientUnits="userSpaceOnUse" />
    <linearGradient
       inkscape:collect="always"
       xlink:href="#linearGradient4357"
       id="linearGradient4363"
       x1="24"
       y1="47"
       x2="24"
       y2="1"
       gradientUnits="userSpaceOnUse" />
    <linearGradient
       inkscape:collect="always"
       xlink:href="#linearGradient4373"
       id="linearGradient4379"
       x1="24"
       y1="47"
       x2="24"
       y2="1"
       gradientUnits="userSpaceOnUse" />
    <linearGradient
       inkscape:collect="always"
       xlink:href="#linearGradient4381"
       id="linearGradient4387"
       x1="24"
       y1="47"
       x2="24"
       y2="1"
       gradientUnits="userSpaceOnUse" />
    <linearGradient
       inkscape:collect="always"
       xlink:href="#linearGradient4389"
       id="linearGradient4395"
       x1="24"
       y1="47"
       x2="24"
       y2="1"
       gradientUnits="userSpaceOnUse" />
    <linearGradient
       inkscape:collect="always"
       xlink:href="#linearGradient4397"
       id="linearGradient4403"
       x1="24"
       y1="47"
       x2="24"
       y2="1"
       gradientUnits="userSpaceOnUse" />
  </defs>
  <path
     inkscape:connector-curvature="0"
     id="path28"
     style="fill:url(#linearGradient4910);fill-opacity:1"
     d="M 47,24 C 47,36.703 36.703,47 24,47 11.297,47 1,36.703 1,24 1,11.297 11.297,1 24,1 36.703,1 47,11.297 47,24 Z" />
  <g
     id="g18">
    <path
       d="m 36.31 5 c 5.859 4.062 9.688 10.831 9.688 18.5 c 0 12.426 -10.07 22.5 -22.5 22.5 c -7.669 0 -14.438 -3.828 -18.5 -9.688 c 1.037 1.822 2.306 3.499 3.781 4.969 c 4.085 3.712 9.514 5.969 15.469 5.969 c 12.703 0 23 -10.298 23 -23 c 0 -5.954 -2.256 -11.384 -5.969 -15.469 c -1.469 -1.475 -3.147 -2.744 -4.969 -3.781 z m 4.969 3.781 c 3.854 4.113 6.219 9.637 6.219 15.719 c 0 12.703 -10.297 23 -23 23 c -6.081 0 -11.606 -2.364 -15.719 -6.219 c 4.16 4.144 9.883 6.719 16.219 6.719 c 12.703 0 23 -10.298 23 -23 c 0 -6.335 -2.575 -12.06 -6.719 -16.219 z"
       style="opacity:0.05"
       id="path20" />
    <path
       d="m 41.28 8.781 c 3.712 4.085 5.969 9.514 5.969 15.469 c 0 12.703 -10.297 23 -23 23 c -5.954 0 -11.384 -2.256 -15.469 -5.969 c 4.113 3.854 9.637 6.219 15.719 6.219 c 12.703 0 23 -10.298 23 -23 c 0 -6.081 -2.364 -11.606 -6.219 -15.719 z"
       style="opacity:0.1"
       id="path22" />
    <path
       d="m 31.25 2.375 c 8.615 3.154 14.75 11.417 14.75 21.13 c 0 12.426 -10.07 22.5 -22.5 22.5 c -9.708 0 -17.971 -6.135 -21.12 -14.75 a 23 23 0 0 0 44.875 -7 a 23 23 0 0 0 -16 -21.875 z"
       style="opacity:0.2"
       id="path24" />
  </g>
  <g
     id="g64">
    <path
       d="m 40.03 7.531 c 3.712 4.084 5.969 9.514 5.969 15.469 0 12.703 -10.297 23 -23 23 c -5.954 0 -11.384 -2.256 -15.469 -5.969 4.178 4.291 10.01 6.969 16.469 6.969 c 12.703 0 23 -10.298 23 -23 0 -6.462 -2.677 -12.291 -6.969 -16.469 z"
       style="opacity:0.1"
       id="path66" />
  </g>
  <path
     d="m 34,25 c 0,4.969285 -4.030715,9 -9,9 -4.969285,0 -9,-4.030715 -9,-9 0,-4.969285 4.030715,-9 9,-9 4.969285,0 9,4.030715 9,9 m 0,0"
     style="fill:#000000;fill-opacity:1;fill-rule:nonzero;stroke:none;opacity:0.1"
     id="path4335"
     inkscape:connector-curvature="0" />
  <path
     inkscape:connector-curvature="0"
     id="path52"
     style="fill:#f9f9f9;fill-opacity:1;fill-rule:nonzero;stroke:none"
     d="m 33,24 c 0,4.969285 -4.030715,9 -9,9 -4.969285,0 -9,-4.030715 -9,-9 0,-4.969285 4.030715,-9 9,-9 4.969285,0 9,4.030715 9,9 m 0,0" />
  <path
     inkscape:connector-curvature="0"
     id="path54"
     style="fill:#355362;fill-opacity:1;fill-rule:nonzero;stroke:none"
     d="m 32,24 c 0,4.417455 -3.582545,8 -8,8 -4.417455,0 -8,-3.582545 -8,-8 0,-4.417455 3.582545,-8 8,-8 4.417455,0 8,3.582545 8,8 m 0,0" />
  <path
     inkscape:connector-curvature="0"
     id="path56"
     style="fill:#53697f;fill-opacity:1;fill-rule:nonzero;stroke:none"
     d="m 30,24 c 0,3.3135 -2.6865,6 -6,6 -3.3135,0 -6,-2.6865 -6,-6 0,-3.3135 2.6865,-6 6,-6 3.3135,0 6,2.6865 6,6 m 0,0" />
  <path
     inkscape:connector-curvature="0"
     id="path58"
     style="fill:#355362;fill-opacity:1;fill-rule:nonzero;stroke:none"
     d="m 28,24 c 0,2.208666 -1.792,4 -4,4 -2.208666,0 -4,-1.792 -4,-4 0,-2.208666 1.792,-4 4,-4 2.208666,0 4,1.792 4,4 m 0,0" />
  <path
     inkscape:connector-curvature="0"
     id="path60"
     style="fill:url(#radialGradient3427);fill-rule:nonzero;stroke:none"
     d="m 25.278891,22.081664 c 0,0.706587 -0.572304,1.278891 -1.278891,1.278891 -0.706587,0 -1.278891,-0.572304 -1.278891,-1.278891 0,-0.706587 0.572304,-1.278891 1.278891,-1.278891 0.706587,0 1.278891,0.572304 1.278891,1.278891 m 0,0" />
  <path
     inkscape:connector-curvature="0"
     id="path62"
     style="fill:url(#radial1);fill-rule:nonzero;stroke:none"
     d="m 24.639445,25.278891 c 0,0.352334 -0.287111,0.639445 -0.639445,0.639445 -0.352334,0 -0.639445,-0.287111 -0.639445,-0.639445 0,-0.352335 0.287111,-0.639446 0.639445,-0.639446 0.352334,0 0.639445,0.287111 0.639445,0.639446 m 0,0" />
  <path
     style="opacity:0.1;fill:#000000;fill-opacity:1;fill-rule:nonzero;stroke:none;stroke-width:0.5;stroke-linejoin:round;stroke-miterlimit:4;stroke-dasharray:none;stroke-opacity:1"
     d="M 17.650391 13 L 11.298828 24 L 17.650391 35 L 18.072266 35 L 12.298828 25 L 18.650391 14 L 30.927734 14 L 30.349609 13 L 17.650391 13 z "
     id="rect4232" />
  <path
     style="opacity:1;fill:url(#linearGradient4387);fill-opacity:1;fill-rule:nonzero;stroke:none;stroke-width:0.5;stroke-linejoin:round;stroke-miterlimit:4;stroke-dasharray:none;stroke-opacity:1"
     d="m 17.650391,35 6.916015,11.980469 C 33.044405,46.774425 40.387484,41.992932 44.203125,35 Z"
     id="rect3412"
     inkscape:connector-curvature="0"
     sodipodi:nodetypes="cccc" />
  <path
     style="opacity:1;fill:url(#linearGradient4403);fill-opacity:1;fill-rule:nonzero;stroke:none;stroke-width:0.5;stroke-linejoin:round;stroke-miterlimit:4;stroke-dasharray:none;stroke-opacity:1"
     d="m 24,1 c -0.191275,0 -0.380156,0.00903 -0.570312,0.013672 L 36.701172,24 43.625,12.005859 C 39.58252,5.4057344 32.307053,1 24,1 Z m 19.625,11.005859 c -29.083333,23.996094 -14.541667,11.998047 0,0 z"
     id="rect3400"
     inkscape:connector-curvature="0"
     sodipodi:nodetypes="scccscc" />
  <path
     style="opacity:1;fill:url(#linearGradient4355);fill-opacity:1;fill-rule:nonzero;stroke:none;stroke-width:0.5;stroke-linejoin:round;stroke-miterlimit:4;stroke-dasharray:none;stroke-opacity:1"
     d="m 3.796875,13 c -2.53125,23.333333 -1.265625,11.666667 0,0 z m 0,0 C 2.013804,16.267837 1,20.014994 1,24 1,28.395947 2.2357903,32.50147 4.375,35.994141 L 17.650391,13 Z"
     id="rect3420"
     inkscape:connector-curvature="0"
     sodipodi:nodetypes="cccsccc" />
  <path
     style="opacity:1;fill:url(#linearGradient4379);fill-opacity:1;fill-rule:nonzero;stroke:none;stroke-width:0.5;stroke-linejoin:round;stroke-miterlimit:4;stroke-dasharray:none;stroke-opacity:1"
     d="M 11.298828,24 4.375,35.994141 C 8.41748,42.594266 15.692947,47 24,47 c 0.191275,0 0.380156,-0.009 0.570312,-0.01367 z M 4.375,35.994141 c -2.9166667,8.003906 -1.4583333,4.001953 0,0 z"
     id="rect3416"
     inkscape:connector-curvature="0"
     sodipodi:nodetypes="ccscccc" />
  <path
     style="opacity:1;fill:url(#linearGradient4395);fill-opacity:1;fill-rule:nonzero;stroke:none;stroke-width:0.5;stroke-linejoin:round;stroke-miterlimit:4;stroke-dasharray:none;stroke-opacity:1"
     d="M 43.625 12.005859 L 30.349609 35 L 44.203125 35 C 45.986196 31.732163 47 27.985006 47 24 C 47 19.604053 45.76421 15.49853 43.625 12.005859 z "
     id="rect3406" />
  <path
     style="opacity:1;fill:url(#linearGradient4363);fill-opacity:1;fill-rule:nonzero;stroke:none;stroke-width:0.5;stroke-linejoin:round;stroke-miterlimit:4;stroke-dasharray:none;stroke-opacity:1"
     d="M 23.433594 1.0195312 C 14.955595 1.2255747 7.6125161 6.0070678 3.796875 13 L 30.349609 13 L 28.744141 10.220703 L 23.433594 1.0195312 z "
     id="rect3424" />
</svg>

<svg xmlns="http://www.w3.org/2000/svg" xmlns:xlink="http://www.w3.org/1999/xlink" viewBox="0 0 48 48">
 <defs>
  <linearGradient id="linearGradient4397">
   <stop style="stop-color:#5c5c5c;stop-opacity:1"/>
   <stop offset="1" style="stop-color:#666;stop-opacity:1"/>
  </linearGradient>
  <linearGradient id="linearGradient4389">
   <stop style="stop-color:#666;stop-opacity:1"/>
   <stop offset="1" style="stop-color:#707070;stop-opacity:1"/>
  </linearGradient>
  <radialGradient id="radial0" gradientUnits="userSpaceOnUse" cx="6.773" cy="5.927" r="0.564" gradientTransform="matrix(3.543307,0,0,3.543307,0.000000147638,0.000377575)">
   <stop style="stop-color:#8eb0c7;stop-opacity:1"/>
   <stop offset="1" style="stop-color:#8eb0c7;stop-opacity:0"/>
  </radialGradient>
  <radialGradient id="radial1" gradientUnits="userSpaceOnUse" cx="6" cy="17.292" r="1" gradientTransform="matrix(0.6394453,0,0,0.6394453,20.163328,14.221584)" xlink:href="#radial0"/>
  <radialGradient xlink:href="#radial0" id="radialGradient3427" gradientUnits="userSpaceOnUse" gradientTransform="matrix(2.265751,0,0,2.265751,8.6533129,8.6535542)" cx="6.773" cy="5.927" r="0.564"/>
  <linearGradient id="linearGradient4910" x1="1" x2="47" gradientUnits="userSpaceOnUse" gradientTransform="matrix(0,1,-1,0,48,0)">
   <stop style="stop-color:#8a8a8a;stop-opacity:1"/>
   <stop offset="1" style="stop-color:#808080;stop-opacity:1"/>
  </linearGradient>
  <linearGradient xlink:href="#linearGradient4397" id="linearGradient4355" y1="47" x2="0" y2="1" gradientUnits="userSpaceOnUse"/>
  <linearGradient xlink:href="#linearGradient4389" id="linearGradient4363" y1="47" x2="0" y2="1" gradientUnits="userSpaceOnUse"/>
  <linearGradient xlink:href="#linearGradient4389" id="linearGradient4379" y1="47" x2="0" y2="1" gradientUnits="userSpaceOnUse"/>
  <linearGradient xlink:href="#linearGradient4397" id="linearGradient4387" y1="47" x2="0" y2="1" gradientUnits="userSpaceOnUse"/>
  <linearGradient xlink:href="#linearGradient4389" id="linearGradient4395" y1="47" x2="0" y2="1" gradientUnits="userSpaceOnUse"/>
  <linearGradient xlink:href="#linearGradient4397" id="linearGradient4403" y1="47" x2="0" y2="1" gradientUnits="userSpaceOnUse"/>
 </defs>
 <path d="M 24 2 A 22 22 0 0 0 2 24 A 22 22 0 0 0 24 46 A 22 22 0 0 0 46 24 A 22 22 0 0 0 24 2 z" style="fill:url(#linearGradient4910);fill-opacity:1"/>
 <g>
  <path d="m 36.31 5 c 5.859 4.062 9.688 10.831 9.688 18.5 c 0 12.426 -10.07 22.5 -22.5 22.5 c -7.669 0 -14.438 -3.828 -18.5 -9.688 c 1.037 1.822 2.306 3.499 3.781 4.969 c 4.085 3.712 9.514 5.969 15.469 5.969 c 12.703 0 23 -10.298 23 -23 c 0 -5.954 -2.256 -11.384 -5.969 -15.469 c -1.469 -1.475 -3.147 -2.744 -4.969 -3.781 z m 4.969 3.781 c 3.854 4.113 6.219 9.637 6.219 15.719 c 0 12.703 -10.297 23 -23 23 c -6.081 0 -11.606 -2.364 -15.719 -6.219 c 4.16 4.144 9.883 6.719 16.219 6.719 c 12.703 0 23 -10.298 23 -23 c 0 -6.335 -2.575 -12.06 -6.719 -16.219 z" style="opacity:0.05"/>
  <path d="m 41.28 8.781 c 3.712 4.085 5.969 9.514 5.969 15.469 c 0 12.703 -10.297 23 -23 23 c -5.954 0 -11.384 -2.256 -15.469 -5.969 c 4.113 3.854 9.637 6.219 15.719 6.219 c 12.703 0 23 -10.298 23 -23 c 0 -6.081 -2.364 -11.606 -6.219 -15.719 z" style="opacity:0.1"/>
  <path d="m 31.25 2.375 c 8.615 3.154 14.75 11.417 14.75 21.13 c 0 12.426 -10.07 22.5 -22.5 22.5 c -9.708 0 -17.971 -6.135 -21.12 -14.75 a 23 23 0 0 0 44.875 -7 a 23 23 0 0 0 -16 -21.875 z" style="opacity:0.2"/>
 </g>
 <path d="m 23.434 1.02 c -8.478 0.206 -15.821 4.988 -19.637 11.98 c 4.43 0.8 8.782 1.93 13.854 0 l 12.699 0 c -1.596 -4.266 -3.205 -8.527 -6.916 -11.98" style="fill:url(#linearGradient4363);opacity:1;fill-opacity:1;stroke:none;fill-rule:nonzero"/>
 <path d="m 24 1 c -0.191 0 -0.38 0.009 -0.57 0.014 l 13.271 22.986 c 2.562 -3.722 6.17 -6.312 6.924 -11.994 -4.04 -6.6 -11.318 -11.01 -19.625 -11.01" style="fill:url(#linearGradient4403);opacity:1;fill-opacity:1;stroke:none;fill-rule:nonzero"/>
 <path d="m 43.625 12.01 -13.275 22.994 c 4.294 0.701 8.223 2.193 13.854 0 c 1.783 -3.268 2.797 -7.01 2.797 -11 0 -4.396 -1.236 -8.501 -3.375 -11.994" style="fill:url(#linearGradient4395);opacity:1;fill-opacity:1;stroke:none;fill-rule:nonzero"/>
 <path d="m 17.65 35 c 0.153 5.353 3.71 8.556 6.916 11.98 c 8.478 -0.206 15.821 -4.988 19.637 -11.98" style="fill:url(#linearGradient4387);opacity:1;fill-opacity:1;stroke:none;fill-rule:nonzero"/>
 <path d="m 11.299 24 c -5.656 3.321 -5.892 7.708 -6.924 11.994 4.04 6.6 11.318 11.01 19.625 11.01 c 0.191 0 0.38 -0.009 0.57 -0.014 z" style="fill:url(#linearGradient4379);opacity:1;fill-opacity:1;stroke:none;fill-rule:nonzero"/>
 <g>
  <path d="m 40.03 7.531 c 3.712 4.084 5.969 9.514 5.969 15.469 0 12.703 -10.297 23 -23 23 c -5.954 0 -11.384 -2.256 -15.469 -5.969 4.178 4.291 10.01 6.969 16.469 6.969 c 12.703 0 23 -10.298 23 -23 0 -6.462 -2.677 -12.291 -6.969 -16.469 z" style="opacity:0.1"/>
 </g>
 <path d="m 34 25 c 0 4.969 -4.03 9 -9 9 -4.969 0 -9 -4.03 -9 -9 0 -4.969 4.03 -9 9 -9 4.969 0 9 4.03 9 9 m 0 0" style="fill:#000;opacity:0.1;fill-opacity:1;stroke:none;fill-rule:nonzero"/>
 <path d="m 33 24 c 0 4.969 -4.03 9 -9 9 -4.969 0 -9 -4.03 -9 -9 0 -4.969 4.03 -9 9 -9 4.969 0 9 4.03 9 9 m 0 0" style="fill:#f9f9f9;fill-opacity:1;stroke:none;fill-rule:nonzero"/>
 <path d="m 32 24 c 0 4.417 -3.583 8 -8 8 -4.417 0 -8 -3.583 -8 -8 0 -4.417 3.583 -8 8 -8 4.417 0 8 3.583 8 8 m 0 0" style="fill:#355362;fill-opacity:1;stroke:none;fill-rule:nonzero"/>
 <path d="m 30 24 c 0 3.314 -2.686 6 -6 6 -3.314 0 -6 -2.686 -6 -6 0 -3.314 2.686 -6 6 -6 3.314 0 6 2.686 6 6 m 0 0" style="fill:#53697f;fill-opacity:1;stroke:none;fill-rule:nonzero"/>
 <path d="m 28 24 c 0 2.209 -1.792 4 -4 4 -2.209 0 -4 -1.792 -4 -4 0 -2.209 1.792 -4 4 -4 2.209 0 4 1.792 4 4 m 0 0" style="fill:#355362;fill-opacity:1;stroke:none;fill-rule:nonzero"/>
 <path d="m 25.279 22.08 c 0 0.707 -0.572 1.279 -1.279 1.279 -0.707 0 -1.279 -0.572 -1.279 -1.279 0 -0.707 0.572 -1.279 1.279 -1.279 0.707 0 1.279 0.572 1.279 1.279 m 0 0" style="fill:url(#radialGradient3427);stroke:none;fill-rule:nonzero"/>
 <path d="m 24.639 25.279 c 0 0.352 -0.287 0.639 -0.639 0.639 -0.352 0 -0.639 -0.287 -0.639 -0.639 0 -0.352 0.287 -0.639 0.639 -0.639 0.352 0 0.639 0.287 0.639 0.639 m 0 0" style="fill:url(#radial1);stroke:none;fill-rule:nonzero"/>
 <path d="m 17.65 13 l -6.352 11 l 6.352 11 l 0.422 0 l -5.773 -10 l 6.352 -11 l 12.277 0 l -0.578 -1 l -12.699 0 z" style="fill:#000;opacity:0.1;fill-opacity:1;stroke:none;fill-rule:nonzero"/>
 <path d="m 3.797 13 c -1.783 3.268 -2.797 7.01 -2.797 11 0 4.396 1.236 8.501 3.375 11.994 l 13.275 -22.994" style="fill:url(#linearGradient4355);opacity:1;fill-opacity:1;stroke:none;fill-rule:nonzero"/>
</svg>
